;FLAVOR:Repetier
;TIME:4003
;MINX:96.707
;MINY:82.949
;MINZ:0.2
;MAXX:123.32
;MAXY:137.514
;MAXZ:81.8
;Generated with Cura_SteamEngine 4.13.0
M190 S65
M104 S215
M109 S215
M82 ;absolute extrusion mode
; Ender 3 Custom Start G-code
G92 E0 ; Reset Extruder
G28 ; Home all axes
G1 Z2.0 F3000 ; Move Z Axis up little to prevent scratching of Heat Bed
G1 X0.1 Y20 Z0.3 F5000.0 ; Move to start position
G1 X0.1 Y200.0 Z0.3 F1500.0 E15 ; Draw the first line
G1 X0.4 Y200.0 Z0.3 F5000.0 ; Move to side a little
G1 X0.4 Y20 Z0.3 F1500.0 E30 ; Draw the second line
G92 E0 ; Reset Extruder
G1 Z2.0 F3000 ; Move Z Axis up little to prevent scratching of Heat Bed
G1 X5 Y20 Z0.3 F5000.0 ; Move over to prevent blob squish
G92 E0
G92 E0
G1 F2700 E-5
;LAYER_COUNT:410
;LAYER:0
M107
G0 F6000 X99.984 Y86.577 Z0.2
;TYPE:SKIRT
G1 F2700 E0
G1 F1200 X100.65 Y85.917 E0.03119
G1 X101.37 Y85.316 E0.06238
G1 X102.139 Y84.779 E0.09358
G1 X102.951 Y84.309 E0.12478
G1 X103.932 Y83.855 E0.16073
G1 X104.036 Y83.813 E0.16446
G1 X104.92 Y83.5 E0.19565
G1 X105.827 Y83.262 E0.22684
G1 X106.751 Y83.103 E0.25803
G1 X108.04 Y83.014 E0.301
G1 X109.264 Y83.001 E0.34171
G1 X110.797 Y82.961 E0.39272
G1 X111.672 Y82.949 E0.42182
G1 X112.61 Y82.976 E0.45304
G1 X113.541 Y83.083 E0.4842
G1 X114.461 Y83.269 E0.51542
G1 X115.361 Y83.532 E0.54661
G1 X116.235 Y83.872 E0.5778
G1 X117.077 Y84.284 E0.60898
G1 X117.522 Y84.539 E0.62604
G1 X117.697 Y84.645 E0.63284
G1 X118.478 Y85.165 E0.66405
G1 X119.211 Y85.749 E0.69522
G1 X119.893 Y86.394 E0.72644
G1 X120.516 Y87.094 E0.75761
G1 X121.078 Y87.845 E0.78881
G1 X121.574 Y88.641 E0.82
G1 X122 Y89.477 E0.85121
G1 X122.354 Y90.345 E0.88239
G1 X122.632 Y91.241 E0.91359
G1 X122.833 Y92.157 E0.94478
G1 X122.982 Y93.464 E0.98853
G1 X123.017 Y94.124 E1.01052
G1 X123.199 Y96.852 E1.10145
G1 X123.272 Y97.689 E1.1294
G1 X123.298 Y98.061 E1.1418
G1 X123.305 Y98.192 E1.14616
G1 X123.32 Y98.908 E1.16998
G1 X123.317 Y99.164 E1.1785
G1 X123.31 Y99.45 E1.18801
G1 X123.293 Y99.905 E1.20316
G1 X123.229 Y102.541 E1.29086
G1 X123.236 Y104.823 E1.36676
G1 X123.255 Y106.064 E1.40804
G1 X123.229 Y106.998 E1.43911
G1 X123.129 Y108.42 E1.48653
G1 X123.105 Y108.702 E1.49594
G1 X122.969 Y111.178 E1.57842
G1 X122.896 Y114.221 E1.67965
G1 X122.886 Y115.576 E1.72472
G1 X122.895 Y117.669 E1.79434
G1 X122.904 Y118.289 E1.81496
G1 X122.903 Y118.678 E1.8279
G1 X122.819 Y122.796 E1.96489
G1 X122.82 Y123.878 E2.00088
G1 X122.781 Y124.815 E2.03207
G1 X122.709 Y125.449 E2.05329
G1 X122.599 Y126.216 E2.07907
G1 X122.441 Y127.209 E2.11251
G1 X122.3 Y128.026 E2.14008
G1 X122.1 Y128.942 E2.17127
G1 X121.823 Y129.838 E2.20246
G1 X121.471 Y130.707 E2.23365
G1 X121.045 Y131.543 E2.26485
G1 X120.55 Y132.34 E2.29606
G1 X120.149 Y132.89 E2.3187
G1 X119.926 Y133.177 E2.33079
G1 X119.32 Y133.893 E2.36198
G1 X118.654 Y134.554 E2.39319
G1 X117.935 Y135.156 E2.42438
G1 X117.168 Y135.694 E2.45554
G1 X116.357 Y136.166 E2.48675
G1 X115.767 Y136.453 E2.50857
G1 X115.581 Y136.537 E2.51536
G1 X114.711 Y136.886 E2.54654
G1 X113.814 Y137.16 E2.57774
G1 X112.897 Y137.357 E2.60893
G1 X111.572 Y137.5 E2.65326
G1 X111.36 Y137.51 E2.66032
G1 X110.422 Y137.514 E2.69151
G1 X109.488 Y137.438 E2.72268
G1 X108.425 Y137.253 E2.75857
G1 X108.132 Y137.187 E2.76856
G1 X107.226 Y136.942 E2.79977
G1 X106.345 Y136.621 E2.83096
G1 X105.495 Y136.226 E2.86214
G1 X104.681 Y135.76 E2.89333
G1 X103.91 Y135.226 E2.92453
G1 X103.187 Y134.629 E2.95571
G1 X102.517 Y133.972 E2.98692
G1 X101.864 Y133.206 E3.0204
G1 X101.707 Y133.004 E3.02891
G1 X101.163 Y132.24 E3.0601
G1 X100.687 Y131.432 E3.09129
G1 X100.281 Y130.587 E3.12247
G1 X99.949 Y129.71 E3.15366
G1 X99.73 Y128.961 E3.17962
G1 X99.47 Y127.93 E3.21498
G1 X99.257 Y127.02 E3.24607
G1 X99.112 Y126.359 E3.26858
G1 X98.951 Y125.435 E3.29977
G1 X98.858 Y124.16 E3.34229
G1 X98.734 Y120.756 E3.45558
G1 X98.649 Y119.166 E3.50854
G1 X98.63 Y118.677 E3.52482
G1 X98.61 Y118.351 E3.53568
G1 X98.598 Y118.107 E3.54381
G1 X98.582 Y117.691 E3.55765
G1 X98.421 Y114.76 E3.65529
G1 X98.215 Y112.305 E3.73723
G1 X97.928 Y109.76 E3.82241
G1 X97.667 Y107.853 E3.88643
G1 X97.61 Y107.347 E3.90336
G1 X97.56 Y106.794 E3.92183
G1 X97.298 Y104.268 E4.0063
G1 X96.82 Y100.764 E4.12392
G1 X96.734 Y99.849 E4.15449
G1 X96.719 Y99.502 E4.16604
G1 X96.707 Y99.091 E4.17972
G1 X96.741 Y97.841 E4.22131
G1 X96.838 Y96.698 E4.25946
G1 X96.981 Y94.695 E4.32625
G1 X96.991 Y94.607 E4.3292
G1 X97.074 Y93.338 E4.37149
G1 X97.175 Y92.406 E4.40267
G1 X97.355 Y91.485 E4.43388
G1 X97.613 Y90.584 E4.46506
G1 X97.947 Y89.707 E4.49627
G1 X98.354 Y88.862 E4.52746
G1 X98.831 Y88.055 E4.55864
G1 X99.376 Y87.291 E4.58986
G1 X99.984 Y86.577 E4.62105
G0 F6000 X100.37 Y86.75
G1 F1200 X101.032 Y86.111 E4.65165
G1 X101.748 Y85.532 E4.68228
G1 X102.512 Y85.018 E4.7129
G1 X103.317 Y84.571 E4.74353
G1 X104.082 Y84.226 E4.77144
G1 X104.186 Y84.184 E4.77517
G1 X105.054 Y83.877 E4.80579
G1 X105.945 Y83.646 E4.83641
G1 X106.853 Y83.493 E4.86703
G1 X108.044 Y83.414 E4.90673
G1 X109.28 Y83.401 E4.94785
G1 X110.803 Y83.361 E4.99852
G1 X111.678 Y83.349 E5.02762
G1 X112.598 Y83.376 E5.05824
G1 X113.512 Y83.483 E5.08884
G1 X114.414 Y83.67 E5.11948
G1 X115.296 Y83.933 E5.15009
G1 X116.152 Y84.272 E5.18072
G1 X117.315 Y84.882 E5.22439
G1 X117.49 Y84.988 E5.2312
G1 X118.256 Y85.498 E5.26181
G1 X118.975 Y86.073 E5.29243
G1 X119.641 Y86.709 E5.32306
G1 X120.249 Y87.4 E5.35367
G1 X120.795 Y88.141 E5.38428
G1 X121.275 Y88.927 E5.41492
G1 X121.685 Y89.751 E5.44553
G1 X122.022 Y90.608 E5.47616
G1 X122.283 Y91.491 E5.50678
G1 X122.467 Y92.393 E5.5374
G1 X122.583 Y93.486 E5.57396
G1 X122.621 Y94.2 E5.59774
G1 X122.799 Y96.868 E5.68667
G1 X122.874 Y97.724 E5.71525
G1 X122.899 Y98.082 E5.72719
G1 X122.906 Y98.213 E5.73155
G1 X122.92 Y98.903 E5.75451
G1 X122.917 Y99.159 E5.76302
G1 X122.91 Y99.435 E5.7722
G1 X122.894 Y99.846 E5.78588
G1 X122.829 Y102.532 E5.87525
G1 X122.836 Y104.831 E5.95171
G1 X122.855 Y106.071 E5.99296
G1 X122.83 Y106.971 E6.02291
G1 X122.731 Y108.386 E6.07008
G1 X122.706 Y108.68 E6.0799
G1 X122.569 Y111.179 E6.16314
G1 X122.496 Y114.208 E6.26391
G1 X122.486 Y115.573 E6.30932
G1 X122.495 Y117.677 E6.3793
G1 X122.504 Y118.295 E6.39985
G1 X122.503 Y118.67 E6.41232
G1 X122.419 Y122.788 E6.54932
G1 X122.42 Y123.878 E6.58557
G1 X122.381 Y124.798 E6.6162
G1 X122.313 Y125.392 E6.63608
G1 X122.203 Y126.159 E6.66186
G1 X122.046 Y127.146 E6.6951
G1 X121.906 Y127.957 E6.72247
G1 X121.709 Y128.857 E6.75311
G1 X121.435 Y129.735 E6.7837
G1 X121.085 Y130.587 E6.81434
G1 X120.663 Y131.405 E6.84495
G1 X120.172 Y132.184 E6.87558
G1 X119.833 Y132.645 E6.89461
G1 X119.61 Y132.932 E6.9067
G1 X119.014 Y133.634 E6.93733
G1 X118.36 Y134.281 E6.96793
G1 X117.652 Y134.869 E6.99854
G1 X116.895 Y135.394 E7.02918
G1 X116.096 Y135.85 E7.05978
G1 X115.603 Y136.089 E7.078
G1 X115.417 Y136.173 E7.08479
G1 X114.562 Y136.515 E7.11541
G1 X113.681 Y136.781 E7.14602
G1 X112.78 Y136.971 E7.17665
G1 X111.553 Y137.1 E7.21769
G1 X111.341 Y137.11 E7.22474
G1 X110.421 Y137.114 E7.25534
G1 X109.503 Y137.037 E7.28598
G1 X108.513 Y136.863 E7.31942
G1 X108.22 Y136.797 E7.32941
G1 X107.331 Y136.556 E7.36004
G1 X106.467 Y136.238 E7.39066
G1 X105.633 Y135.847 E7.4213
G1 X104.837 Y135.385 E7.45191
G1 X104.084 Y134.856 E7.48252
G1 X103.379 Y134.263 E7.51316
G1 X102.729 Y133.612 E7.54375
G1 X102.18 Y132.961 E7.57208
G1 X102.023 Y132.759 E7.58059
G1 X101.49 Y132.008 E7.61122
G1 X101.024 Y131.214 E7.64184
G1 X100.629 Y130.382 E7.67247
G1 X100.308 Y129.52 E7.70307
G1 X100.118 Y128.862 E7.72584
G1 X99.86 Y127.839 E7.76093
G1 X99.648 Y126.934 E7.79185
G1 X99.503 Y126.273 E7.81436
G1 X99.345 Y125.366 E7.84498
G1 X99.259 Y124.187 E7.8843
G1 X99.133 Y120.718 E7.99975
G1 X99.049 Y119.15 E8.05198
G1 X99.029 Y118.636 E8.06909
G1 X98.998 Y118.091 E8.08724
G1 X98.98 Y117.628 E8.10266
G1 X98.823 Y114.772 E8.19779
G1 X98.609 Y112.228 E8.2827
G1 X98.325 Y109.706 E8.36711
G1 X98.064 Y107.799 E8.43113
G1 X98.009 Y107.312 E8.44743
G1 X97.962 Y106.786 E8.465
G1 X97.697 Y104.234 E8.55033
G1 X97.216 Y100.71 E8.66863
G1 X97.133 Y99.828 E8.69809
G1 X97.119 Y99.49 E8.70935
G1 X97.107 Y99.079 E8.72302
G1 X97.14 Y97.874 E8.76312
G1 X97.235 Y96.752 E8.80057
G1 X97.38 Y94.724 E8.86819
G1 X97.392 Y94.619 E8.87171
G1 X97.474 Y93.364 E8.91354
G1 X97.573 Y92.449 E8.94415
G1 X97.752 Y91.546 E8.97476
G1 X98.009 Y90.662 E9.00538
G1 X98.341 Y89.803 E9.03601
G1 X98.747 Y88.977 E9.06663
G1 X99.222 Y88.188 E9.09726
G1 X99.765 Y87.444 E9.12789
G1 X100.37 Y86.75 E9.15851
G0 F6000 X100.755 Y86.927
G1 F1200 X101.414 Y86.309 E9.18856
G1 X102.125 Y85.753 E9.21858
G1 X102.883 Y85.261 E9.24864
G1 X103.681 Y84.839 E9.27866
G1 X104.231 Y84.597 E9.29865
G1 X104.335 Y84.555 E9.30238
G1 X105.187 Y84.254 E9.33243
G1 X106.062 Y84.03 E9.36248
G1 X106.953 Y83.884 E9.39251
G1 X108.048 Y83.814 E9.429
G1 X109.293 Y83.801 E9.47041
G1 X110.808 Y83.761 E9.52082
G1 X111.683 Y83.749 E9.54992
G1 X112.586 Y83.777 E9.57997
G1 X113.483 Y83.884 E9.61002
G1 X114.366 Y84.07 E9.64003
G1 X115.23 Y84.334 E9.67008
G1 X116.067 Y84.673 E9.70011
G1 X117.107 Y85.224 E9.73926
G1 X117.282 Y85.33 E9.74606
G1 X118.033 Y85.831 E9.77609
G1 X118.737 Y86.397 E9.80613
G1 X119.388 Y87.023 E9.83617
G1 X119.981 Y87.705 E9.86623
G1 X120.511 Y88.436 E9.89626
G1 X120.975 Y89.211 E9.92631
G1 X121.368 Y90.024 E9.95634
G1 X121.688 Y90.868 E9.98636
G1 X121.932 Y91.738 E10.01642
G1 X122.097 Y92.626 E10.04646
G1 X122.183 Y93.507 E10.0759
G1 X122.223 Y94.252 E10.10071
G1 X122.396 Y96.852 E10.18738
G1 X122.475 Y97.759 E10.21766
G1 X122.499 Y98.104 E10.22916
G1 X122.506 Y98.235 E10.23353
G1 X122.52 Y98.899 E10.25562
G1 X122.517 Y99.155 E10.26413
G1 X122.511 Y99.42 E10.27295
G1 X122.492 Y99.93 E10.28992
G1 X122.429 Y102.523 E10.37619
G1 X122.436 Y104.838 E10.45319
G1 X122.455 Y106.077 E10.4944
G1 X122.431 Y106.943 E10.52322
G1 X122.332 Y108.353 E10.57023
G1 X122.309 Y108.626 E10.57934
G1 X122.169 Y111.179 E10.66438
G1 X122.097 Y114.196 E10.76476
G1 X122.086 Y115.57 E10.81046
G1 X122.095 Y117.684 E10.88077
G1 X122.104 Y118.301 E10.90129
G1 X122.103 Y118.662 E10.9133
G1 X122.019 Y122.78 E11.05029
G1 X122.02 Y123.879 E11.08685
G1 X121.981 Y124.781 E11.11688
G1 X121.917 Y125.335 E11.13542
G1 X121.807 Y126.102 E11.1612
G1 X121.628 Y127.222 E11.19892
G1 X121.512 Y127.889 E11.22144
G1 X121.318 Y128.771 E11.25147
G1 X121.047 Y129.632 E11.2815
G1 X120.701 Y130.466 E11.31153
G1 X120.282 Y131.266 E11.34156
G1 X119.794 Y132.026 E11.3716
G1 X119.517 Y132.399 E11.38706
G1 X119.294 Y132.686 E11.39915
G1 X118.709 Y133.374 E11.42918
G1 X118.066 Y134.008 E11.45922
G1 X117.368 Y134.582 E11.48927
G1 X116.623 Y135.092 E11.5193
G1 X115.438 Y135.724 E11.56397
G1 X115.252 Y135.808 E11.57076
G1 X114.413 Y136.143 E11.60081
G1 X113.548 Y136.402 E11.63084
G1 X112.664 Y136.584 E11.66086
G1 X111.535 Y136.701 E11.69861
G1 X111.323 Y136.711 E11.70567
G1 X110.419 Y136.713 E11.73573
G1 X109.52 Y136.636 E11.76575
G1 X108.601 Y136.473 E11.79679
G1 X108.308 Y136.407 E11.80678
G1 X107.436 Y136.169 E11.83684
G1 X106.589 Y135.856 E11.86687
G1 X105.773 Y135.469 E11.89691
G1 X104.995 Y135.011 E11.92694
G1 X104.26 Y134.486 E11.95698
G1 X103.574 Y133.899 E11.98701
G1 X102.943 Y133.252 E12.01707
G1 X102.495 Y132.715 E12.04033
G1 X102.338 Y132.513 E12.04884
G1 X101.816 Y131.777 E12.07885
G1 X101.361 Y130.996 E12.10891
G1 X100.977 Y130.179 E12.13894
G1 X100.667 Y129.331 E12.16897
G1 X100.506 Y128.764 E12.18857
G1 X100.249 Y127.747 E12.22346
G1 X100.039 Y126.849 E12.25414
G1 X99.894 Y126.188 E12.27664
G1 X99.74 Y125.298 E12.30668
G1 X99.659 Y124.18 E12.34397
G1 X99.535 Y120.738 E12.45852
G1 X99.449 Y119.135 E12.51192
G1 X99.43 Y118.642 E12.52832
G1 X99.409 Y118.302 E12.53965
G1 X99.398 Y118.076 E12.54718
G1 X99.383 Y117.679 E12.56039
G1 X99.22 Y114.718 E12.65903
G1 X99.01 Y112.217 E12.7425
G1 X98.721 Y109.651 E12.82839
G1 X98.46 Y107.745 E12.89237
G1 X98.407 Y107.276 E12.90807
G1 X98.366 Y106.815 E12.92347
G1 X98.088 Y104.138 E13.01298
G1 X97.613 Y100.656 E13.12987
G1 X97.533 Y99.808 E13.1582
G1 X97.518 Y99.479 E13.16915
G1 X97.506 Y99.068 E13.18283
G1 X97.538 Y97.908 E13.22142
G1 X97.639 Y96.717 E13.26118
G1 X97.779 Y94.752 E13.3267
G1 X97.791 Y94.652 E13.33005
G1 X97.873 Y93.39 E13.37211
G1 X97.971 Y92.493 E13.40212
G1 X98.149 Y91.607 E13.43218
G1 X98.404 Y90.741 E13.46221
G1 X98.735 Y89.901 E13.49224
G1 X99.139 Y89.093 E13.52228
G1 X99.613 Y88.324 E13.55233
G1 X100.153 Y87.6 E13.58237
G1 X100.755 Y86.927 E13.6124
G1 F2700 E8.6124
G0 F6000 X107.37 Y100.21
G0 X110.272 Y103.863
G1 F2700 E13.6124
G1 F1200 X110.305 Y103.86 E13.6135
G1 X110.271 Y103.967 E13.61724
G1 X110.272 Y103.863 E13.6207
G0 F6000 X110.131 Y103.477
G1 F1200 X110.487 Y103.444 E13.63259
G1 X110.691 Y103.398 E13.63954
G1 X110.748 Y103.815 E13.65354
G1 X110.659 Y104.057 E13.66212
G1 X110.582 Y104.382 E13.67323
G1 X110.593 Y104.778 E13.6864
G1 X110.815 Y106.063 E13.72977
G1 X110.511 Y106.762 E13.75513
G1 X110.43 Y107.03 E13.76444
G1 X110.395 Y106.854 E13.77041
G1 X110.294 Y106.62 E13.77888
G1 X109.991 Y106.064 E13.79994
G1 X110.05 Y105.48 E13.81947
G1 X110.044 Y105.146 E13.83058
G1 X110.009 Y104.976 E13.83635
G1 X109.867 Y104.446 E13.8546
G1 X109.875 Y103.468 E13.88713
G1 X110.131 Y103.477 E13.89565
G0 F6000 X110.146 Y103.077
G1 F1200 X110.4 Y103.054 E13.90413
G1 X110.664 Y102.995 E13.91313
G1 X110.924 Y102.897 E13.92237
G1 X111.089 Y102.807 E13.92862
G1 X111.065 Y103.18 E13.94105
G1 X111.157 Y103.86 E13.96388
G1 X111.034 Y104.195 E13.97575
G1 X110.975 Y104.471 E13.98513
G1 X110.988 Y104.71 E13.99309
G1 X111.23 Y106.112 E14.04041
G1 X110.878 Y106.921 E14.06976
G1 X110.803 Y107.193 E14.07914
G1 X110.807 Y107.475 E14.08852
G1 X110.912 Y107.831 E14.10087
G1 X110.874 Y107.888 E14.10315
G1 X110.713 Y108.252 E14.11639
G1 X110.637 Y108.524 E14.12578
G1 X110.651 Y108.871 E14.13733
G1 X110.843 Y109.746 E14.16712
G1 X110.763 Y109.914 E14.17331
G1 X110.605 Y109.549 E14.18654
G1 X110.457 Y109.308 E14.19595
G1 X110.248 Y109.118 E14.20534
G1 X110.157 Y109.05 E14.20912
G1 X109.957 Y108.037 E14.24346
G1 X110.052 Y107.451 E14.26321
G1 X110.058 Y107.169 E14.27259
G1 X109.943 Y106.811 E14.2851
G1 X109.58 Y106.146 E14.3103
G1 X109.652 Y105.44 E14.3339
G1 X109.623 Y105.08 E14.34591
G1 X109.466 Y104.496 E14.36602
G1 X109.477 Y103.138 E14.41119
G1 X109.473 Y103.024 E14.41499
G1 X109.649 Y103.059 E14.42096
G1 X110.146 Y103.077 E14.4375
G0 F6000 X110.16 Y102.678
G1 F1200 X110.313 Y102.664 E14.44261
G1 X110.577 Y102.605 E14.4516
G1 X110.733 Y102.546 E14.45715
G1 X111.102 Y102.345 E14.47113
G1 X111.222 Y102.269 E14.47585
G1 X111.44 Y102.111 E14.48481
G1 X111.5 Y102.074 E14.48715
G1 X111.52 Y102.157 E14.48999
G1 X111.525 Y102.711 E14.50842
G1 X111.461 Y103.127 E14.52242
G1 X111.57 Y103.928 E14.5493
G1 X111.547 Y103.96 E14.55061
G1 X111.41 Y104.333 E14.56383
G1 X111.382 Y104.642 E14.57415
G1 X111.645 Y106.162 E14.62546
G1 X111.245 Y107.081 E14.65879
G1 X111.196 Y107.293 E14.66603
G1 X111.227 Y107.514 E14.67345
G1 X111.355 Y107.888 E14.6866
G1 X111.24 Y108.05 E14.69321
G1 X111.079 Y108.414 E14.70645
G1 X111.029 Y108.627 E14.71372
G1 X111.042 Y108.786 E14.71903
G1 X111.267 Y109.813 E14.754
G1 X111.153 Y110.04 E14.76245
G1 X111.057 Y110.426 E14.77567
G1 X111.051 Y110.692 E14.78452
G1 X111.304 Y111.92 E14.82623
G1 X111.237 Y112.19 E14.83548
G1 X111.043 Y112.48 E14.84708
G1 X110.947 Y112.739 E14.85627
G1 X110.897 Y113.134 E14.86951
G1 X110.926 Y113.407 E14.87864
G1 X111.205 Y114.205 E14.90676
G1 X111.267 Y114.713 E14.92378
G1 X111.049 Y114.909 E14.93353
G1 X110.916 Y115.082 E14.94079
G1 X110.865 Y115.221 E14.94572
G1 X110.776 Y115.61 E14.95899
G1 X110.767 Y115.828 E14.96624
G1 X110.805 Y115.971 E14.97117
G1 X111.178 Y116.885 E15.004
G1 X111.12 Y118.166 E15.04665
G1 X111.15 Y118.382 E15.0539
G1 X111.296 Y118.627 E15.06339
G1 X111.248 Y119.134 E15.08033
G1 X110.901 Y119.375 E15.09438
G1 X110.803 Y119.544 E15.10088
G1 X110.661 Y119.917 E15.11415
G1 X110.622 Y120.131 E15.12139
G1 X110.655 Y120.326 E15.12796
G1 X111.151 Y121.759 E15.1784
G1 X110.984 Y122.016 E15.18859
G1 X110.892 Y122.268 E15.19752
G1 X110.842 Y122.664 E15.21079
G1 X110.869 Y122.931 E15.21972
